coreui/free/cil-mobile-landscape.svg

<svg xmlns="http://www.w3.org/2000/svg" viewBox="0 0 512 512">
  <path fill="var(--ci-primary-color, currentColor)" d="M464,96H48a32.036,32.036,0,0,0-32,32V384a32.036,32.036,0,0,0,32,32H464a32.036,32.036,0,0,0,32-32V128A32.036,32.036,0,0,0,464,96ZM48,384V128H96V384.018l-48,0Zm80-256H384V384l-256,.013ZM464,384l-48,0V128h48Z" class="ci-primary"/>
</svg>

<svg viewBox="0 0 512 512" xmlns="http://www.w3.org/2000/svg"><path d="M464 96H48v-.001c-17.67.01-31.99 14.33-32 32v256 0c.01 17.66 14.33 31.98 32 32h416 -.001c17.66-.02 31.98-14.34 32-32v-256 0c-.02-17.67-14.34-31.99-32-32ZM48 384V128h48v256.018H48Zm80-256h256v256l-256 .01Zm336 256h-48V128h48Z"/></svg>
